assets/img/braze_icons/message-smile-circle.svg

<svg fill="none" height="24" viewBox="0 0 24 24" width="24" xmlns="http://www.w3.org/2000/svg"><path clip-rule="evenodd" d="m12.5 2c-5.24666 0-9.49995 4.25329-9.49995 9.5 0 1.06.17399 2.0814.49575 3.036.05659.1679.08991.2673.11156.3406l.00708.0246-.00375.0078c-.0257.053-.0639.1242-.13536.2565l-1.65188 3.0575c-.10238.1894-.2092.3871-.28267.5589-.07302.1708-.1913.4842-.1331.8557.06822.4354.3245.8188.70078 1.0483.32101.1959.6558.2064.84154.2042.18688-.0022.4103-.0253.62447-.0475l5.15496-.5329c.08256-.0085.12572-.0129.15734-.0153l.00407-.0003.01237.0043c.03885.014.09154.0342.18249.0693 1.0609.4087 2.2127.6323 3.4143.6323 5.2468 0 9.5-4.2533 9.5-9.5 0-5.24671-4.2533-9.5-9.5-9.5zm1.4927 7c0-.82843.6715-1.5 1.5-1.5.8284 0 1.5.67157 1.5 1.5s-.6716 1.5-1.5 1.5c-.8285 0-1.5-.67157-1.5-1.5zm-6.10002 4.2001c.44044-.3304 1.06469-.2424 1.39686.1958.06165.0787.12948.1527.19857.2248.1473.1537.36864.3622.65529.5706.577.4197 1.3748.8088 2.3493.8088s1.7723-.3891 2.3493-.8088c.2866-.2084.508-.4169.6553-.5706.069-.0721.1369-.1462.1985-.2248.3322-.4382.9564-.5262 1.3969-.1958.4418.3313.5314.9581.2 1.4.0025-.0033-.0034.0042-.0136.017-.0244.0307-.0732.092-.0898.1118-.0586.0698-.1416.1645-.2481.2756-.212.2213-.5219.5127-.9228.8043-.798.5803-2.0002 1.1913-3.5257 1.1913s-2.72775-.611-3.52569-1.1913c-.40089-.2916-.7108-.583-.92288-.8043-.10645-.1111-.18944-.2058-.24808-.2756-.02936-.035-.05272-.0639-.06996-.0857-.34543-.4463-.299-1.0939.16659-1.4431zm1.6-5.7001c-.82843 0-1.5.67157-1.5 1.5s.67157 1.5 1.5 1.5c.82842 0 1.50002-.67157 1.50002-1.5s-.6716-1.5-1.50002-1.5z" fill="#801ed7" fill-rule="evenodd"/></svg>

<svg width="24" height="24" viewBox="0 0 24 24" fill="none" xmlns="http://www.w3.org/2000/svg">
<path fill-rule="evenodd" clip-rule="evenodd" d="M12.5 2C7.25334 2 3.00005 6.25329 3.00005 11.5C3.00005 12.56 3.17404 13.5814 3.4958 14.536C3.55239 14.7039 3.58571 14.8033 3.60736 14.8766L3.61444 14.9012L3.61069 14.909C3.58499 14.962 3.54679 15.0332 3.47533 15.1655L1.82345 18.223C1.72107 18.4124 1.61425 18.6101 1.54078 18.7819C1.46776 18.9527 1.34948 19.2661 1.40768 19.6376C1.4759 20.073 1.73218 20.4564 2.10846 20.6859C2.42947 20.8818 2.76426 20.8923 2.95 20.8901C3.13688 20.8879 3.3603 20.8648 3.57447 20.8426L8.72943 20.3097C8.81199 20.3012 8.85515 20.2968 8.88677 20.2944L8.89084 20.2941L8.90321 20.2984C8.94206 20.3124 8.99475 20.3326 9.0857 20.3677C10.1466 20.7764 11.2984 21 12.5 21C17.7468 21 22 16.7467 22 11.5C22 6.25329 17.7467 2 12.5 2ZM13.9927 9C13.9927 8.17157 14.6642 7.5 15.4927 7.5C16.3211 7.5 16.9927 8.17157 16.9927 9C16.9927 9.82843 16.3211 10.5 15.4927 10.5C14.6642 10.5 13.9927 9.82843 13.9927 9ZM7.89268 13.2001C8.33312 12.8697 8.95737 12.9577 9.28954 13.3959C9.35119 13.4746 9.41902 13.5486 9.48811 13.6207C9.63541 13.7744 9.85675 13.9829 10.1434 14.1913C10.7204 14.611 11.5182 15.0001 12.4927 15.0001C13.4672 15.0001 14.265 14.611 14.842 14.1913C15.1286 13.9829 15.35 13.7744 15.4973 13.6207C15.5663 13.5486 15.6342 13.4745 15.6958 13.3959C16.028 12.9577 16.6522 12.8697 17.0927 13.2001C17.5345 13.5314 17.6241 14.1582 17.2927 14.6001C17.2952 14.5968 17.2893 14.6043 17.2791 14.6171C17.2547 14.6478 17.2059 14.7091 17.1893 14.7289C17.1307 14.7987 17.0477 14.8934 16.9412 15.0045C16.7292 15.2258 16.4193 15.5172 16.0184 15.8088C15.2204 16.3891 14.0182 17.0001 12.4927 17.0001C10.9672 17.0001 9.76495 16.3891 8.96701 15.8088C8.56612 15.5172 8.25621 15.2258 8.04413 15.0045C7.93768 14.8934 7.85469 14.7987 7.79605 14.7289C7.76669 14.6939 7.74333 14.665 7.72609 14.6432C7.38066 14.1969 7.42709 13.5493 7.89268 13.2001ZM9.49268 7.5C8.66425 7.5 7.99268 8.17157 7.99268 9C7.99268 9.82843 8.66425 10.5 9.49268 10.5C10.3211 10.5 10.9927 9.82843 10.9927 9C10.9927 8.17157 10.3211 7.5 9.49268 7.5Z" fill="#801ED7"/>
</svg>
